X:780
T: Snow on the Roof
C: BB
R: reel
Q: 1/8=350
M: 4/4
L: 1/8
K: G
A|"G"GABd g2 gf|"Em"eBBc "Bm"dBAF|"C"EG"D"FD "Em"EB (3B^AB|"Bm"dBAF "D"DFAF|
"G"GABd gfga|"Em"beef "C"gfef|"Am"gecA "G"Bdgd|"D7"cAFD "G"G3 :|
d|"Em"edeg "Bm"abbg|"G"abbg "D"agef|"C"ge"D"df "Em"eBBA|"C"GE"D"FD "Em7"EDB,D|
"Em"EDEG "Bm"ABBd|"C"edeg "Bm"ab (3b^ab|"C"gece "G"dgbg|"D7"fdcA "G"G3 :|
%%%%%%%%%%%%%%%%%%%%%%%%%%%%%%%%%%%%%%%%%%%
